Assets/CustomModels/CustomTextures/LUTs/Lookup2.CUBE
#Created by: Adobe Photoshop Export Color Lookup Plugin
TITLE "Untitled-1"
#LUT size
LUT_3D_SIZE 32
#data domain
DOMAIN_MIN 0.0 0.0 0.0
DOMAIN_MAX 1.0 1.0 1.0
#LUT data points
0.000000 0.000000 0.000000
0.000000 0.000000 0.000000
0.000000 0.000000 0.000000
0.142853 0.000000 0.000000
0.142853 0.000000 0.000000
0.285706 0.000000 0.000000
0.285706 0.000000 0.000000
0.285706 0.000000 0.000000
0.428558 0.000000 0.000000
0.428558 0.000000 0.000000
0.428558 0.000000 0.000000
0.571411 0.000000 0.000000
0.571411 0.000000 0.000000
0.571411 0.000000 0.000000
0.714264 0.000000 0.000000
0.714264 0.000000 0.000000
0.714264 0.142853 0.000000
0.714264 0.142853 0.000000
0.857117 0.142853 0.000000
0.857117 0.142853 0.000000
0.857117 0.142853 0.000000
0.857117 0.142853 0.000000
0.857117 0.142853 0.000000
1.000000 0.142853 0.000000
1.000000 0.142853 0.000000
1.000000 0.142853 0.000000
1.000000 0.142853 0.000000
1.000000 0.142853 0.000000
1.000000 0.142853 0.000000
1.000000 0.142853 0.000000
1.000000 0.142853 0.000000
1.000000 0.285706 0.000000
0.000000 0.000000 0.000000
0.000000 0.000000 0.000000
0.000000 0.000000 0.000000
0.142853 0.000000 0.000000
0.142853 0.000000 0.000000
0.142853 0.000000 0.000000
0.285706 0.000000 0.000000
0.285706 0.000000 0.000000
0.428558 0.000000 0.000000
0.428558 0.000000 0.000000
0.428558 0.000000 0.000000
0.571411 0.000000 0.000000
0.571411 0.142853 0.000000
0.571411 0.142853 0.000000
0.714264 0.142853 0.000000
0.714264 0.142853 0.000000
0.714264 0.142853 0.000000
0.714264 0.142853 0.000000
0.857117 0.142853 0.000000
0.857117 0.142853 0.000000
0.857117 0.142853 0.000000
0.857117 0.142853 0.000000
0.857117 0.142853 0.000000
1.000000 0.142853 0.000000
1.000000 0.142853 0.000000
1.000000 0.142853 0.000000
1.000000 0.142853 0.000000
1.000000 0.285706 0.000000
1.000000 0.285706 0.000000
1.000000 0.285706 0.000000
1.000000 0.285706 0.000000
1.000000 0.285706 0.000000
0.714264 0.714264 0.714264
0.714264 0.714264 0.714264
0.714264 0.714264 0.857117
0.714264 0.714264 0.714264
0.714264 0.714264 0.714264
0.714264 0.714264 0.714264
0.714264 0.714264 0.714264
0.714264 0.714264 0.714264
0.714264 0.714264 0.857117
0.714264 0.714264 0.857117
0.714264 0.857117 0.857117
0.714264 0.714264 0.857117
0.714264 0.714264 0.857117
0.714264 0.714264 0.857117
0.714264 0.714264 0.857117
0.714264 0.857117 0.857117
0.714264 0.857117 0.857117
0.714264 0.857117 0.857117
0.714264 0.714264 0.857117
0.714264 0.714264 0.714264
0.714264 0.714264 0.714264
0.714264 0.714264 0.714264
0.714264 0.714264 0.714264
0.714264 0.714264 0.714264
0.714264 0.714264 0.714264
0.714264 0.714264 0.714264
0.714264 0.714264 0.714264
0.714264 0.714264 0.714264
0.714264 0.714264 0.714264
0.714264 0.714264 0.714264
0.714264 0.714264 0.714264
0.571411 0.714264 0.714264
0.714264 0.857117 0.857117
0.857117 0.857117 0.857117
0.857117 0.857117 0.857117
0.857117 0.857117 0.857117
0.857117 0.857117 0.857117
0.714264 0.857117 0.857117
0.857117 0.857117 0.857117
0.857117 0.857117 0.857117
0.857117 0.857117 0.857117
0.857117 0.857117 0.857117
0.857117 0.857117 0.857117
0.857117 0.857117 0.857117
0.857117 0.857117 0.857117
0.857117 0.857117 0.857117
0.857117 0.857117 0.857117
0.857117 0.857117 0.857117
0.857117 0.857117 0.857117
0.857117 0.857117 0.857117
0.857117 0.857117 0.857117
0.714264 0.857117 0.857117
0.714264 0.857117 0.857117
0.714264 0.857117 0.857117
0.714264 0.857117 0.857117
0.714264 0.714264 0.857117
0.714264 0.714264 0.714264
0.714264 0.714264 0.714264
0.714264 0.714264 0.714264
0.714264 0.714264 0.714264
0.714264 0.714264 0.714264
0.714264 0.714264 0.714264
0.714264 0.714264 0.714264
0.714264 0.714264 0.714264
0.857117 0.857117 0.857117
0.857117 0.857117 0.857117
0.857117 0.857117 0.857117
0.857117 0.857117 0.857117
0.857117 0.857117 0.857117
0.857117 0.857117 0.857117
0.857117 0.857117 0.857117
0.857117 0.857117 0.857117
0.857117 0.857117 0.857117
0.857117 0.857117 0.857117
0.857117 0.857117 0.857117
0.857117 0.857117 0.857117
0.857117 0.857117 0.857117
0.857117 0.857117 0.857117
0.857117 0.857117 0.857117
0.857117 0.857117 0.857117
0.857117 0.857117 0.857117
0.857117 0.857117 0.857117
0.857117 0.857117 0.857117
0.857117 0.857117 0.857117
0.857117 0.857117 0.857117
0.857117 0.857117 0.857117
0.857117 0.857117 0.857117
0.857117 0.857117 0.857117
0.857117 0.857117 0.857117
0.857117 0.857117 0.857117
0.714264 0.857117 0.857117
0.714264 0.857117 0.857117
0.714264 0.714264 0.857117
0.714264 0.714264 0.714264
0.714264 0.714264 0.714264
0.714264 0.714264 0.714264
0.857117 0.857117 0.857117
0.857117 0.857117 0.857117
0.857117 0.857117 0.857117
0.857117 0.857117 0.857117
0.857117 0.857117 0.857117
0.857117 0.857117 0.857117
0.857117 0.857117 0.857117
0.857117 0.857117 0.857117
0.857117 0.857117 0.857117
0.857117 0.857117 0.857117
0.857117 0.857117 0.857117
0.857117 0.857117 0.857117
0.857117 0.857117 0.857117
0.857117 0.857117 0.857117
0.857117 0.857117 0.857117
0.857117 0.857117 0.857117
0.857117 0.857117 0.857117
0.857117 0.857117 0.857117
0.857117 0.857117 0.857117
0.857117 0.857117 0.857117
0.857117 0.857117 0.857117
0.857117 0.857117 0.857117
0.857117 0.857117 0.857117
0.857117 0.857117 0.857117
0.857117 0.857117 0.857117
0.857117 0.857117 0.857117
0.714264 0.857117 0.857117
0.714264 0.857117 0.857117
0.714264 0.714264 0.714264
0.714264 0.714264 0.714264
0.714264 0.714264 0.714264
0.714264 0.714264 0.714264
0.857117 0.857117 0.857117
0.857117 0.857117 0.857117
0.857117 0.857117 0.857117
0.857117 0.857117 0.857117
0.857117 0.857117 0.857117
0.857117 0.857117 1.000000
0.857117 0.857117 1.000000
0.857117 0.857117 1.000000
0.857117 0.857117 1.000000
0.857117 0.857117 0.857117
0.857117 0.857117 0.857117
0.857117 0.857117 0.857117
0.857117 0.857117 1.000000
0.857117 0.857117 1.000000
0.857117 0.857117 1.000000
0.857117 0.857117 1.000000
0.857117 0.857117 0.857117
0.857117 0.857117 0.857117
0.857117 0.857117 0.857117
0.857117 0.857117 0.857117
0.857117 0.857117 0.857117
0.857117 0.857117 0.857117
0.857117 0.857117 0.857117
0.857117 0.857117 0.857117
0.857117 0.857117 0.857117
0.857117 0.857117 0.857117
0.857117 0.857117 0.857117
0.857117 0.857117 0.857117
0.857117 0.857117 0.857117
0.857117 0.857117 0.857117
0.857117 0.857117 0.857117
0.714264 0.857117 0.857117
0.857117 1.000000 1.000000
0.857117 1.000000 1.000000
0.857117 1.000000 1.000000
0.857117 1.000000 1.000000
0.857117 1.000000 1.000000
0.857117 1.000000 1.000000
0.857117 1.000000 1.000000
0.857117 1.000000 1.000000
1.000000 1.000000 1.000000
1.000000 1.000000 1.000000
1.000000 1.000000 1.000000
1.000000 1.000000 1.000000
1.000000 1.000000 1.000000
1.000000 1.000000 1.000000
1.000000 1.000000 1.000000
1.000000 1.000000 1.000000
1.000000 1.000000 1.000000
1.000000 1.000000 1.000000
0.857117 1.000000 1.000000
0.857117 1.000000 1.000000
0.857117 0.857117 1.000000
0.857117 0.857117 0.857117
0.857117 0.857117 0.857117
0.857117 0.857117 0.857117
0.857117 0.857117 0.857117
0.857117 0.857117 0.857117
0.857117 0.857117 0.857117
0.857117 0.857117 0.857117
0.857117 0.857117 0.857117
0.857117 0.857117 0.857117
0.857117 0.857117 0.857117
0.857117 0.857117 0.857117
0.857117 1.000000 1.000000
0.857117 1.000000 1.000000
0.857117 1.000000 1.000000
1.000000 1.000000 1.000000
1.000000 1.000000 1.000000
1.000000 1.000000 1.000000
1.000000 1.000000 1.000000
1.000000 1.000000 1.000000
1.000000 1.000000 1.000000
1.000000 1.000000 1.000000
1.000000 1.000000 1.000000
1.000000 1.000000 1.000000
1.000000 1.000000 1.000000
1.000000 1.000000 1.000000
1.000000 1.000000 1.000000
1.000000 1.000000 1.000000
1.000000 1.000000 1.000000
1.000000 1.000000 1.000000
1.000000 1.000000 1.000000
1.000000 1.000000 1.000000
0.857117 1.000000 1.000000
0.857117 1.000000 1.000000
0.857117 0.857117 1.000000
0.857117 0.857117 0.857117
0.857117 0.857117 0.857117
0.857117 0.857117 0.857117
0.857117 0.857117 0.857117
0.857117 0.857117 0.857117
0.857117 0.857117 0.857117
0.857117 0.857117 0.857117
0.857117 0.857117 0.857117
0.857117 0.857117 0.857117
1.000000 1.000000 1.000000
1.000000 1.000000 1.000000
1.000000 1.000000 1.000000
1.000000 1.000000 1.000000
1.000000 1.000000 1.000000
1.000000 1.000000 1.000000
1.000000 1.000000 1.000000
1.000000 1.000000 1.000000
1.000000 1.000000 1.000000
1.000000 1.000000 1.000000
1.000000 1.000000 1.000000
1.000000 1.000000 1.000000
1.000000 1.000000 1.000000
1.000000 1.000000 1.000000
1.000000 1.000000 1.000000
1.000000 1.000000 1.000000
1.000000 1.000000 1.000000
1.000000 1.000000 1.000000
1.000000 1.000000 1.000000
1.000000 1.000000 1.000000
1.000000 1.000000 1.000000
1.000000 1.000000 1.000000
1.000000 1.000000 1.000000
0.857117 1.000000 1.000000
0.857117 0.857117 0.857117
0.857117 0.857117 0.857117
0.857117 0.857117 0.857117
0.857117 0.857117 0.857117
0.857117 0.857117 0.857117
0.857117 0.857117 0.857117
0.857117 0.857117 0.857117
0.857117 0.857117 0.857117
1.000000 1.000000 1.000000
1.000000 1.000000 1.000000
1.000000 1.000000 1.000000
1.000000 1.000000 1.000000
1.000000 1.000000 1.000000
1.000000 1.000000 1.000000
1.000000 1.000000 1.000000
1.000000 1.000000 1.000000
1.000000 1.000000 1.000000
1.000000 1.000000 1.000000
1.000000 1.000000 1.000000
1.000000 1.000000 1.000000
1.000000 1.000000 1.000000
1.000000 1.000000 1.000000
1.000000 1.000000 1.000000
1.000000 1.000000 1.000000
1.000000 1.000000 1.000000
1.000000 1.000000 1.000000
1.000000 1.000000 1.000000
1.000000 1.000000 1.000000
1.000000 1.000000 1.000000
1.000000 1.000000 1.000000
1.000000 1.000000 1.000000
0.857117 1.000000 1.000000
0.857117 1.000000 1.000000
0.857117 0.857117 0.857117
0.857117 0.857117 0.857117
0.857117 0.857117 0.857117
0.857117 0.857117 0.857117
0.857117 0.857117 0.857117
0.857117 0.857117 0.857117
0.857117 0.857117 0.857117
1.000000 1.000000 1.000000
1.000000 1.000000 1.000000
1.000000 1.000000 1.000000
1.000000 1.000000 1.000000
1.000000 1.000000 1.000000
1.000000 1.000000 1.000000
1.000000 1.000000 1.000000
1.000000 1.000000 1.000000
1.000000 1.000000 1.000000
1.000000 1.000000 1.000000
1.000000 1.000000 1.000000
1.000000 1.000000 1.000000
1.000000 1.000000 1.000000
1.000000 1.000000 1.000000
1.000000 1.000000 1.000000
1.000000 1.000000 1.000000
1.000000 1.000000 1.000000
1.000000 1.000000 1.000000
1.000000 1.000000 1.000000
1.000000 1.000000 1.000000
1.000000 1.000000 1.000000
1.000000 1.000000 1.000000
1.000000 1.000000 1.000000
1.000000 1.000000 1.000000
1.000000 1.000000 1.000000
0.857117 1.000000 1.000000
0.857117 1.000000 1.000000
0.857117 0.857117 0.857117
0.857117 0.857117 0.857117
0.857117 0.857117 0.857117
0.857117 0.857117 0.857117
0.857117 0.857117 0.857117
1.000000 1.000000 1.000000
1.000000 1.000000 1.000000
1.000000 1.000000 1.000000
1.000000 1.000000 1.000000
1.000000 1.000000 1.000000
1.000000 1.000000 1.000000
1.000000 1.000000 1.000000
1.000000 1.000000 1.000000
1.000000 1.000000 1.000000
1.000000 1.000000 1.000000
1.000000 1.000000 1.000000
1.000000 1.000000 1.000000
1.000000 1.000000 1.000000
1.000000 1.000000 1.000000
1.000000 1.000000 1.000000
1.000000 1.000000 1.000000
1.000000 1.000000 1.000000
1.000000 1.000000 1.000000
1.000000 1.000000 1.000000
1.000000 1.000000 1.000000
1.000000 1.000000 1.000000
1.000000 1.000000 1.000000
1.000000 1.000000 1.000000
1.000000 1.000000 1.000000
1.000000 1.000000 1.000000
1.000000 1.000000 1.000000
0.857117 1.000000 1.000000
0.857117 1.000000 1.000000
0.857117 0.857117 0.857117
0.857117 0.857117 0.857117
0.857117 0.857117 0.857117
0.857117 0.857117 0.857117
1.000000 1.000000 1.000000
1.000000 1.000000 1.000000
1.000000 1.000000 1.000000
1.000000 1.000000 1.000000
1.000000 1.000000 1.000000
1.000000 1.000000 1.000000
1.000000 1.000000 1.000000
1.000000 1.000000 1.000000
1.000000 1.000000 1.000000
1.000000 1.000000 1.000000
1.000000 1.000000 1.000000
1.000000 1.000000 1.000000
1.000000 1.000000 1.000000
1.000000 1.000000 1.000000
1.000000 1.000000 1.000000
1.000000 1.000000 1.000000
1.000000 1.000000 1.000000
1.000000 1.000000 1.000000
1.000000 1.000000 1.000000
1.000000 1.000000 1.000000
1.000000 1.000000 1.000000
1.000000 1.000000 1.000000
1.000000 1.000000 1.000000
1.000000 1.000000 1.000000
1.000000 1.000000 1.000000
1.000000 1.000000 1.000000
1.000000 1.000000 1.000000
0.857117 1.000000 1.000000
0.857117 1.000000 1.000000
0.857117 0.857117 0.857117
0.857117 0.857117 0.857117
0.857117 0.857117 0.857117
1.000000 1.000000 1.000000
1.000000 1.000000 1.000000
1.000000 1.000000 1.000000
1.000000 1.000000 1.000000
1.000000 1.000000 1.000000
1.000000 1.000000 1.000000
1.000000 1.000000 1.000000
1.000000 1.000000 1.000000
1.000000 1.000000 1.000000
1.000000 1.000000 1.000000
1.000000 1.000000 1.000000
1.000000 1.000000 1.000000
1.000000 1.000000 1.000000
1.000000 1.000000 1.000000
1.000000 1.000000 1.000000
1.000000 1.000000 1.000000
1.000000 1.000000 1.000000
1.000000 1.000000 1.000000
1.000000 1.000000 1.000000
1.000000 1.000000 1.000000
1.000000 1.000000 1.000000
1.000000 1.000000 1.000000
1.000000 1.000000 1.000000
1.000000 1.000000 1.000000
1.000000 1.000000 1.000000
1.000000 1.000000 1.000000
1.000000 1.000000 1.000000
0.857117 1.000000 1.000000
0.857117 1.000000 1.000000
0.857117 0.857117 0.857117
0.857117 0.857117 0.857117
0.857117 0.857117 0.857117
1.000000 1.000000 1.000000
1.000000 1.000000 1.000000
1.000000 1.000000 1.000000
1.000000 1.000000 1.000000
1.000000 1.000000 1.000000
1.000000 1.000000 1.000000
1.000000 1.000000 1.000000
1.000000 1.000000 1.000000
1.000000 1.000000 1.000000
1.000000 1.000000 1.000000
1.000000 1.000000 1.000000
1.000000 1.000000 1.000000
1.000000 1.000000 1.000000
1.000000 1.000000 1.000000
1.000000 1.000000 1.000000
1.000000 1.000000 1.000000
1.000000 1.000000 1.000000
1.000000 1.000000 1.000000
1.000000 1.000000 1.000000
1.000000 1.000000 1.000000
1.000000 1.000000 1.000000
1.000000 1.000000 1.000000
1.000000 1.000000 1.000000
1.000000 1.000000 1.000000
1.000000 1.000000 1.000000
1.000000 1.000000 1.000000
1.000000 1.000000 1.000000
1.000000 1.000000 1.000000
0.857117 1.000000 1.000000
0.857117 0.857117 1.000000
0.857117 0.857117 0.857117
0.857117 0.857117 0.857117
0.571411 0.571411 0.714264
0.285706 0.285706 0.285706
0.142853 0.142853 0.142853
0.000000 0.000000 0.000000
0.000000 0.000000 0.000000
0.000000 0.000000 0.000000
0.000000 0.000000 0.000000
0.000000 0.000000 0.000000
0.000000 0.000000 0.000000
0.000000 0.000000 0.000000
0.000000 0.000000 0.000000
0.000000 0.000000 0.000000
0.000000 0.000000 0.000000
0.000000 0.000000 0.000000
0.000000 0.000000 0.000000
0.000000 0.000000 0.000000
0.000000 0.000000 0.000000
0.000000 0.000000 0.000000
0.000000 0.000000 0.000000
0.000000 0.000000 0.000000
0.000000 0.000000 0.000000
0.000000 0.000000 0.000000
0.000000 0.000000 0.000000
0.000000 0.000000 0.000000
0.000000 0.000000 0.000000
0.000000 0.000000 0.000000
0.000000 0.000000 0.000000
0.000000 0.000000 0.000000
0.000000 0.000000 0.000000
0.000000 0.000000 0.000000
0.000000 0.000000 0.000000
0.000000 0.000000 0.000000
1.000000 1.000000 1.000000
1.000000 1.000000 1.000000
1.000000 1.000000 1.000000
1.000000 1.000000 1.000000
1.000000 1.000000 1.000000
1.000000 1.000000 1.000000
1.000000 1.000000 1.000000
1.000000 1.000000 1.000000
1.000000 1.000000 1.000000
1.000000 1.000000 1.000000
1.000000 1.000000 1.000000
1.000000 1.000000 1.000000
1.000000 1.000000 1.000000
1.000000 1.000000 1.000000
1.000000 1.000000 1.000000
1.000000 1.000000 1.000000
1.000000 1.000000 1.000000
1.000000 1.000000 1.000000
1.000000 1.000000 1.000000
1.000000 1.000000 1.000000
1.000000 1.000000 1.000000
1.000000 1.000000 1.000000
1.000000 1.000000 1.000000
1.000000 1.000000 1.000000
1.000000 1.000000 1.000000
1.000000 1.000000 1.000000
1.000000 1.000000 1.000000
0.857117 1.000000 1.000000
0.857117 0.857117 1.000000
0.857117 0.857117 0.857117
0.857117 0.857117 0.857117
0.857117 0.857117 0.857117
1.000000 0.857117 0.857117
1.000000 0.714264 0.714264
1.000000 0.571411 0.428558
1.000000 0.571411 0.285706
1.000000 0.571411 0.285706
1.000000 0.571411 0.285706
1.000000 0.571411 0.285706
1.000000 0.571411 0.285706
1.000000 0.571411 0.285706
1.000000 0.571411 0.285706
1.000000 0.571411 0.285706
1.000000 0.571411 0.285706
1.000000 0.571411 0.285706
1.000000 0.428558 0.142853
1.000000 0.428558 0.142853
1.000000 0.428558 0.142853
1.000000 0.428558 0.142853
1.000000 0.428558 0.142853
1.000000 0.428558 0.142853
1.000000 0.428558 0.142853
1.000000 0.428558 0.142853
1.000000 0.428558 0.142853
1.000000 0.428558 0.142853
1.000000 0.428558 0.142853
1.000000 0.428558 0.142853
1.000000 0.428558 0.142853
1.000000 0.428558 0.142853
1.000000 0.428558 0.142853
1.000000 0.428558 0.142853
1.000000 0.428558 0.142853
1.000000 0.428558 0.142853
1.000000 0.428558 0.142853
1.000000 1.000000 1.000000
1.000000 1.000000 1.000000
1.000000 1.000000 1.000000
1.000000 1.000000 1.000000
1.000000 1.000000 1.000000
1.000000 1.000000 1.000000
1.000000 1.000000 1.000000
1.000000 1.000000 1.000000
1.000000 1.000000 1.000000
1.000000 1.000000 1.000000
1.000000 1.000000 1.000000
1.000000 1.000000 1.000000
1.000000 1.000000 1.000000
1.000000 1.000000 1.000000
1.000000 1.000000 1.000000
1.000000 1.000000 1.000000
1.000000 1.000000 1.000000
1.000000 1.000000 1.000000
1.000000 1.000000 1.000000
1.000000 1.000000 1.000000
1.000000 1.000000 1.000000
1.000000 1.000000 1.000000
1.000000 1.000000 1.000000
1.000000 1.000000 1.000000
1.000000 1.000000 1.000000
1.000000 1.000000 1.000000
1.000000 1.000000 1.000000
1.000000 1.000000 1.000000
0.857117 0.857117 1.000000
0.857117 0.857117 0.857117
0.857117 0.857117 0.857117
0.857117 0.857117 0.857117
1.000000 1.000000 1.000000
1.000000 1.000000 1.000000
1.000000 1.000000 1.000000
1.000000 1.000000 1.000000
1.000000 1.000000 1.000000
1.000000 1.000000 1.000000
1.000000 1.000000 1.000000
1.000000 1.000000 1.000000
1.000000 1.000000 1.000000
1.000000 1.000000 1.000000
1.000000 1.000000 1.000000
1.000000 1.000000 1.000000
1.000000 1.000000 1.000000
1.000000 1.000000 1.000000
1.000000 1.000000 1.000000
1.000000 1.000000 1.000000
1.000000 1.000000 1.000000
1.000000 1.000000 1.000000
1.000000 1.000000 1.000000
1.000000 1.000000 1.000000
1.000000 1.000000 1.000000
1.000000 1.000000 1.000000
1.000000 1.000000 1.000000
1.000000 1.000000 1.000000
0.857117 1.000000 1.000000
0.857117 1.000000 1.000000
0.857117 1.000000 1.000000
0.857117 0.857117 1.000000
0.857117 0.857117 0.857117
0.857117 0.857117 0.857117
0.857117 0.857117 0.857117
0.857117 0.857117 0.857117
1.000000 1.000000 1.000000
1.000000 1.000000 1.000000
1.000000 1.000000 1.000000
1.000000 1.000000 1.000000
1.000000 1.000000 1.000000
1.000000 1.000000 1.000000
1.000000 1.000000 1.000000
1.000000 1.000000 1.000000
1.000000 1.000000 1.000000
1.000000 1.000000 1.000000
1.000000 1.000000 1.000000
1.000000 1.000000 1.000000
1.000000 1.000000 1.000000
1.000000 1.000000 1.000000
1.000000 1.000000 1.000000
1.000000 1.000000 1.000000
1.000000 1.000000 1.000000
1.000000 1.000000 1.000000
1.000000 1.000000 1.000000
1.000000 1.000000 1.000000
1.000000 1.000000 1.000000
1.000000 1.000000 1.000000
0.857117 1.000000 1.000000
0.857117 0.857117 1.000000
0.857117 0.857117 0.857117
0.857117 0.857117 0.857117
0.857117 0.857117 0.857117
0.857117 0.857117 0.857117
0.857117 0.857117 0.857117
0.857117 0.857117 0.857117
0.857117 0.857117 0.857117
0.857117 0.857117 0.857117
0.857117 1.000000 1.000000
0.857117 1.000000 1.000000
0.857117 1.000000 1.000000
0.857117 1.000000 1.000000
0.857117 1.000000 1.000000
0.857117 1.000000 1.000000
0.857117 1.000000 1.000000
0.857117 1.000000 1.000000
1.000000 1.000000 1.000000
1.000000 1.000000 1.000000
1.000000 1.000000 1.000000
1.000000 1.000000 1.000000
1.000000 1.000000 1.000000
1.000000 1.000000 1.000000
1.000000 1.000000 1.000000
1.000000 1.000000 1.000000
1.000000 1.000000 1.000000
1.000000 1.000000 1.000000
1.000000 1.000000 1.000000
0.857117 1.000000 1.000000
0.857117 1.000000 1.000000
0.857117 1.000000 1.000000
0.857117 0.857117 0.857117
0.857117 0.857117 0.857117
0.857117 0.857117 0.857117
0.857117 0.857117 0.857117
0.857117 0.857117 0.857117
0.857117 0.857117 0.857117
0.857117 0.857117 0.857117
0.857117 0.857117 0.857117
0.857117 0.857117 0.857117
0.857117 0.857117 0.857117
0.857117 0.857117 0.857117
0.857117 0.857117 0.857117
0.857117 0.857117 0.857117
0.857117 0.857117 0.857117
0.857117 0.857117 0.857117
0.857117 0.857117 0.857117
0.857117 0.857117 1.000000
0.857117 0.857117 1.000000
0.857117 1.000000 1.000000
0.857117 1.000000 1.000000
0.857117 1.000000 1.000000
0.857117 1.000000 1.000000
0.857117 1.000000 1.000000
0.857117 1.000000 1.000000
0.857117 1.000000 1.000000
0.857117 1.000000 1.000000
0.857117 1.000000 1.000000
0.857117 1.000000 1.000000
0.857117 1.000000 1.000000
0.857117 0.857117 1.000000
0.857117 0.857117 0.857117
0.857117 0.857117 0.857117
0.857117 0.857117 0.857117
0.857117 0.857117 0.857117
0.857117 0.857117 0.857117
0.857117 0.857117 0.857117
0.857117 0.857117 0.857117
0.857117 0.857117 0.857117
0.857117 0.857117 0.857117
0.857117 0.857117 0.857117
0.857117 0.857117 0.857117
0.857117 0.857117 0.857117
0.857117 0.857117 0.857117
0.857117 0.857117 0.857117
0.857117 0.857117 0.857117
0.857117 0.857117 0.857117
0.857117 0.857117 0.857117
0.857117 0.857117 0.857117
0.857117 0.857117 0.857117
0.857117 0.857117 0.857117
0.857117 0.857117 0.857117
0.857117 0.857117 0.857117
0.857117 0.857117 0.857117
0.857117 0.857117 0.857117
0.857117 0.857117 0.857117
0.857117 0.857117 0.857117
0.857117 0.857117 0.857117
0.857117 0.857117 0.857117
0.857117 0.857117 0.857117
0.857117 0.857117 0.857117
0.857117 0.857117 0.857117
0.857117 0.857117 0.857117
0.857117 0.857117 0.857117
0.857117 0.857117 0.857117
0.857117 0.857117 0.857117
0.857117 0.857117 0.857117
0.857117 0.857117 0.857117
0.857117 0.857117 0.857117
0.857117 0.857117 0.857117
0.857117 0.857117 0.857117
0.857117 0.857117 0.857117
0.857117 0.857117 0.857117
0.857117 0.857117 0.857117
0.857117 0.857117 0.857117
0.857117 0.857117 0.857117
0.857117 0.857117 0.857117
0.857117 0.857117 0.857117
0.857117 0.857117 0.857117
0.857117 0.857117 0.857117
0.857117 0.857117 0.857117
0.857117 0.857117 0.857117
0.857117 0.857117 0.857117
0.857117 0.857117 0.857117
0.857117 0.857117 0.857117
0.857117 0.857117 0.857117
0.857117 0.857117 0.857117
0.857117 0.857117 0.857117
0.857117 0.857117 0.857117
0.857117 0.857117 0.857117
0.857117 0.857117 0.857117
0.857117 0.857117 0.857117
0.857117 0.857117 0.857117
0.857117 0.857117 0.857117
0.857117 0.857117 0.857117
0.857117 0.857117 0.857117
0.857117 0.857117 0.857117
0.857117 0.857117 0.857117
0.857117 0.857117 0.857117
0.857117 0.857117 0.857117
0.857117 0.857117 0.857117
0.857117 0.857117 0.857117
0.857117 0.857117 0.857117
0.857117 0.857117 0.857117
0.857117 0.857117 0.857117
0.857117 0.857117 0.857117
0.857117 0.857117 0.857117
0.857117 0.857117 0.857117
0.857117 0.857117 0.857117
0.857117 0.857117 0.857117
0.857117 0.857117 0.857117
0.857117 0.857117 0.857117
0.857117 0.857117 0.857117
0.857117 0.857117 0.857117
0.857117 0.857117 0.857117
0.857117 0.857117 0.857117
0.857117 0.857117 0.857117
0.857117 0.857117 0.857117
0.857117 0.857117 0.857117
0.857117 0.857117 0.857117
0.857117 0.857117 0.857117
0.857117 0.857117 0.857117
0.857117 0.857117 0.857117
0.857117 0.857117 0.857117
0.857117 0.857117 0.857117
0.857117 0.857117 0.857117
0.857117 0.857117 0.857117
0.857117 0.857117 0.857117
0.857117 0.857117 0.857117
0.857117 0.857117 0.857117
0.857117 0.857117 0.857117
0.857117 0.857117 0.857117
0.857117 0.857117 0.857117
0.857117 0.857117 0.857117
0.857117 0.857117 0.857117
0.857117 0.857117 0.857117
0.857117 0.857117 0.857117
0.714264 0.857117 0.857117
0.714264 0.714264 0.857117
0.714264 0.714264 0.857117
0.714264 0.857117 0.857117
0.714264 0.857117 0.857117
0.714264 0.857117 0.857117
0.714264 0.857117 0.857117
0.714264 0.857117 0.857117
0.714264 0.857117 0.857117
0.857117 0.857117 0.857117
0.857117 0.857117 0.857117
0.857117 0.857117 0.857117
0.857117 0.857117 0.857117
0.857117 0.857117 0.857117
0.857117 0.857117 0.857117
0.857117 0.857117 0.857117
0.857117 0.857117 0.857117
0.857117 0.857117 0.857117
0.857117 0.857117 0.857117
0.857117 0.857117 0.857117
