Assets/CustomModels/CustomTextures/LUTs/Lookup2.CUBE
#Created by: Adobe Photoshop Export Color Lookup Plugin
TITLE "Untitled-1"
#LUT size
LUT_3D_SIZE 5
#data domain
#LUT data points
DOMAIN_MIN 0.000000 0.000000 0.000000
DOMAIN_MAX 0.903226 0.903226 0.903226
0.000000 0.000000 0.000000
0.285706 0.000000 0.000000
0.714264 0.000000 0.000000
0.857117 0.142853 0.000000
1.000000 0.142853 0.000000
0.857117 1.000000 1.000000
0.857117 1.000000 1.000000
1.000000 1.000000 1.000000
0.857117 0.857117 0.857117
0.857117 0.857117 0.857117
1.000000 1.000000 1.000000
1.000000 1.000000 1.000000
1.000000 1.000000 1.000000
1.000000 1.000000 1.000000
0.857117 1.000000 1.000000
1.000000 1.000000 1.000000
1.000000 1.000000 1.000000
1.000000 1.000000 1.000000
1.000000 1.000000 1.000000
0.857117 0.857117 0.857117
0.714264 0.714264 0.714264
0.714264 0.714264 0.857117
0.714264 0.714264 0.714264
0.714264 0.714264 0.714264
0.714264 0.714264 0.428558
0.000000 0.000000 0.142853
0.142853 0.000000 0.142853
0.571411 0.000000 0.142853
0.857117 0.000000 0.000000
1.000000 0.000000 0.000000
0.857117 1.000000 1.000000
0.857117 1.000000 1.000000
1.000000 1.000000 1.000000
0.857117 0.857117 0.857117
0.857117 0.857117 0.857117
1.000000 1.000000 1.000000
1.000000 1.000000 1.000000
1.000000 1.000000 1.000000
1.000000 1.000000 1.000000
0.857117 0.857117 1.000000
0.857117 1.000000 1.000000
1.000000 1.000000 1.000000
1.000000 1.000000 1.000000
0.857117 1.000000 1.000000
0.857117 0.857117 0.857117
0.714264 0.714264 0.714264
0.714264 0.714264 0.714264
0.714264 0.714264 0.714264
0.714264 0.714264 0.714264
0.714264 0.714264 0.714264
0.142853 0.142853 0.285706
0.285706 0.142853 0.285706
0.428558 0.142853 0.285706
0.714264 0.142853 0.285706
1.000000 0.142853 0.142853
0.857117 1.000000 1.000000
0.857117 1.000000 1.000000
1.000000 1.000000 1.000000
0.857117 0.857117 0.857117
0.857117 0.857117 0.857117
1.000000 1.000000 1.000000
1.000000 1.000000 1.000000
1.000000 1.000000 1.000000
1.000000 1.000000 1.000000
0.857117 1.000000 1.000000
1.000000 1.000000 1.000000
1.000000 1.000000 1.000000
1.000000 1.000000 1.000000
1.000000 1.000000 1.000000
0.857117 0.857117 0.857117
0.714264 0.714264 0.714264
0.714264 0.714264 0.714264
0.714264 0.714264 0.714264
0.714264 0.714264 0.714264
0.714264 0.714264 0.714264
0.285706 0.142853 0.571411
0.428558 0.142853 0.571411
0.428558 0.142853 0.571411
0.571411 0.142853 0.428558
0.857117 0.285706 0.428558
0.857117 1.000000 1.000000
1.000000 1.000000 1.000000
1.000000 1.000000 1.000000
0.857117 1.000000 1.000000
0.857117 0.857117 0.857117
1.000000 1.000000 1.000000
1.000000 1.000000 1.000000
1.000000 1.000000 1.000000
1.000000 1.000000 1.000000
0.857117 1.000000 1.000000
0.857117 1.000000 1.000000
1.000000 1.000000 1.000000
1.000000 1.000000 1.000000
0.857117 1.000000 1.000000
0.857117 0.857117 0.857117
0.714264 0.714264 0.714264
0.714264 0.714264 0.714264
0.714264 0.714264 0.714264
0.714264 0.714264 0.714264
0.714264 0.714264 0.714264
0.285706 0.285706 0.714264
0.428558 0.285706 0.714264
0.571411 0.285706 0.714264
0.714264 0.285706 0.714264
0.714264 0.285706 0.571411
0.857117 1.000000 1.000000
1.000000 1.000000 1.000000
1.000000 1.000000 1.000000
0.857117 1.000000 1.000000
0.857117 0.857117 0.857117
1.000000 1.000000 1.000000
1.000000 1.000000 1.000000
1.000000 1.000000 1.000000
1.000000 1.000000 1.000000
0.857117 1.000000 1.000000
0.857117 0.857117 1.000000
1.000000 1.000000 1.000000
1.000000 1.000000 1.000000
0.857117 1.000000 1.000000
0.857117 0.857117 0.857117
0.714264 0.714264 0.714264
0.714264 0.714264 0.714264
0.714264 0.714264 0.714264
0.714264 0.714264 0.714264
0.714264 0.714264 0.714264
